img/icon-brother.svg

<svg width="93" height="110" viewBox="0 0 93 110" fill="none" xmlns="http://www.w3.org/2000/svg">
<g filter="url(#filter0_d_587_2111)">
<path fill-rule="evenodd" clip-rule="evenodd" d="M39.8395 15.2783C34.7994 16.356 30.6714 20.3702 29.2796 25.5475C28.9721 26.6917 28.9184 27.4206 28.85 31.3897L28.7719 35.9245H28.3061C27.4565 35.9245 26.0691 36.57 25.2888 37.3284C23.911 38.6673 23.3284 40.7339 23.7265 42.8697C24.2271 45.556 26.265 47.6038 28.8085 47.9764L29.6463 48.0991L30.1359 49.3185C31.3127 52.2498 33.7239 55.2705 36.3669 57.1247L37.6334 58.013V60.841V63.6689L33.0168 63.746C28.74 63.8173 28.2859 63.8534 26.846 64.2351C23.9458 65.0043 21.6285 66.3107 19.6033 68.3186C17.5544 70.3497 16.0869 72.9213 15.3695 75.7368C15.0141 77.1326 15 77.4533 15 84.2144V91.2414L15.4543 92.1665C15.9532 93.1823 16.8115 94.0476 17.8933 94.6253L18.5952 95H46.2945H73.9938L74.6957 94.6253C75.7775 94.0476 76.6358 93.1823 77.1347 92.1665L77.589 91.2414V84.2144C77.589 77.4533 77.5749 77.1326 77.2195 75.7368C75.7723 70.0562 71.4927 65.7582 65.7749 64.2433C64.2969 63.8518 63.874 63.8178 59.5722 63.746L54.9556 63.6689V60.841V58.013L56.2221 57.1247C58.8651 55.2705 61.2763 52.2498 62.4531 49.3185L62.9427 48.0991L63.7805 47.9764C64.9712 47.802 66.2578 47.1433 67.1242 46.2644C69.5299 43.8243 69.6135 39.5766 67.3002 37.3284C66.5199 36.57 65.1325 35.9245 64.2829 35.9245H63.8171L63.739 31.3897C63.6705 27.4206 63.6169 26.6917 63.3094 25.5475C61.9024 20.3135 57.7538 16.3181 52.6338 15.2659C50.8769 14.9049 41.5438 14.9139 39.8395 15.2783ZM51.9324 18.6838C55.7476 19.4821 59.0465 22.6837 59.9306 26.4463C60.0678 27.0305 60.1812 28.2256 60.1825 29.1018L60.185 30.6951H46.2945H32.404L32.4064 29.1018C32.4112 25.964 33.3016 23.7525 35.4236 21.608C36.4621 20.5583 37.0232 20.1416 38.1236 19.602C40.2283 18.5702 40.961 18.4663 46.2128 18.4546C49.6344 18.447 51.0771 18.5048 51.9324 18.6838ZM34.0382 35.3651C34.0382 36.5157 34.0043 36.6372 33.5605 37.081C33.2977 37.3438 32.93 37.5587 32.7434 37.5587C32.4213 37.5587 32.404 37.4709 32.404 35.8428V34.1269H33.2211H34.0382V35.3651ZM54.9929 35.5764C55.1606 38.5171 56.6968 40.4329 59.3423 41.0002L60.185 41.181V42.8085C60.185 46.8584 58.7253 50.183 55.6827 53.0631C54.5696 54.1168 53.9455 54.5536 52.6184 55.2078C50.2566 56.372 48.8198 56.7142 46.2945 56.7142C43.7463 56.7142 42.3073 56.3676 39.9454 55.1854C38.6122 54.518 37.9568 54.0583 36.8535 53.0163C33.8679 50.1971 32.404 46.8385 32.404 42.8085V41.181L33.2467 41.0002C35.8921 40.4329 37.4284 38.5171 37.5961 35.5764L37.6786 34.1269H46.2945H54.9104L54.9929 35.5764ZM60.185 35.8428C60.185 37.4709 60.1677 37.5587 59.8456 37.5587C59.659 37.5587 59.2913 37.3438 59.0285 37.081C58.5846 36.6372 58.5508 36.5157 58.5508 35.3651V34.1269H59.3679H60.185V35.8428ZM28.8398 41.8484C28.8733 43.219 28.8789 44.3724 28.8521 44.4113C28.7573 44.549 27.9049 43.8127 27.5423 43.2799C27.257 42.8608 27.1746 42.5089 27.1746 41.7093C27.1746 40.5028 27.3626 40.0086 27.9633 39.636C28.7573 39.1435 28.7746 39.1873 28.8398 41.8484ZM64.5989 39.6284C65.2219 39.9964 65.4144 40.4876 65.4144 41.7093C65.4144 42.5089 65.332 42.8608 65.0467 43.2799C64.6841 43.8127 63.8317 44.549 63.7369 44.4113C63.6011 44.214 63.8292 39.3563 63.9742 39.3563C64.0645 39.3563 64.3456 39.4787 64.5989 39.6284ZM46.2945 60.1554C48.4601 60.1554 49.2403 60.091 50.2574 59.8286L51.5239 59.5016V62.2761V65.0504L50.9115 65.6113C48.5104 67.8106 44.0785 67.8106 41.6775 65.6113L41.0651 65.0504V62.2761V59.5016L42.3316 59.8286C43.3487 60.091 44.1289 60.1554 46.2945 60.1554ZM38.8693 67.8045C39.6931 68.6692 41.6011 69.8363 42.8709 70.252C43.9177 70.5949 44.3975 70.6508 46.2945 70.6508C48.1914 70.6508 48.6712 70.5949 49.7181 70.252C50.9879 69.8363 52.8959 68.6692 53.7197 67.8045L54.1997 67.3007H58.8352C64.2005 67.3007 64.9906 67.4156 67.2937 68.5306C70.5096 70.0875 72.7057 72.7211 73.7632 76.2887C74.1034 77.4364 74.1311 77.9034 74.1981 83.6366C74.2775 90.4318 74.2378 90.8025 73.3722 91.3303C72.8602 91.6424 72.3281 91.6488 46.2945 91.6488C20.2609 91.6488 19.7288 91.6424 19.2168 91.3303C18.3512 90.8025 18.3115 90.4318 18.3909 83.6366C18.4579 77.9034 18.4855 77.4364 18.8258 76.2887C19.8672 72.7749 22.0325 70.1399 25.1611 68.5793C27.4423 67.4412 28.2105 67.3265 33.6399 67.3128L38.3893 67.3007L38.8693 67.8045ZM45.3717 76.2766C43.9318 77.1546 44.6049 79.3936 46.3089 79.3936C47.516 79.3936 48.3338 78.1639 47.8679 77.0489C47.6146 76.4426 46.9032 75.9613 46.2618 75.9625C46.0551 75.9628 45.6545 76.1042 45.3717 76.2766ZM45.2661 83.3182C44.6417 83.8093 44.4227 84.6192 44.7211 85.3335C44.9693 85.9277 45.6828 86.4206 46.2945 86.4206C46.9062 86.4206 47.6196 85.9277 47.8679 85.3335C48.3367 84.2115 47.5162 82.9888 46.2945 82.9888C45.9307 82.9888 45.516 83.1217 45.2661 83.3182Z" fill="#06FF79"/>
</g>
<defs>
<filter id="filter0_d_587_2111" x="0" y="0" width="92.5889" height="110" filterUnits="userSpaceOnUse" color-interpolation-filters="sRGB">
<feFlood flood-opacity="0" result="BackgroundImageFix"/>
<feColorMatrix in="SourceAlpha" type="matrix" values="0 0 0 0 0 0 0 0 0 0 0 0 0 0 0 0 0 0 127 0" result="hardAlpha"/>
<feOffset/>
<feGaussianBlur stdDeviation="7.5"/>
<feComposite in2="hardAlpha" operator="out"/>
<feColorMatrix type="matrix" values="0 0 0 0 0.0463889 0 0 0 0 0.695833 0 0 0 0 0.346333 0 0 0 0.8 0"/>
<feBlend mode="normal" in2="BackgroundImageFix" result="effect1_dropShadow_587_2111"/>
<feBlend mode="normal" in="SourceGraphic" in2="effect1_dropShadow_587_2111" result="shape"/>
</filter>
</defs>
</svg>

<svg width="93" height="110" fill="none" xmlns="http://www.w3.org/2000/svg"><g filter="url(#filter0_d_587_2111)"><path fill-rule="evenodd" clip-rule="evenodd" d="M39.84 15.278c-5.04 1.078-9.169 5.092-10.56 10.27-.308 1.144-.362 1.873-.43 5.842l-.078 4.535h-.466c-.85 0-2.237.645-3.017 1.403-1.378 1.34-1.96 3.406-1.563 5.542.501 2.686 2.539 4.734 5.082 5.106l.838.123.49 1.22c1.177 2.93 3.588 5.951 6.23 7.806l1.267.888v5.656l-4.616.077c-4.277.071-4.731.107-6.171.49-2.9.768-5.218 2.075-7.243 4.083a16.027 16.027 0 00-4.234 7.418c-.355 1.396-.369 1.716-.369 8.477v7.027l.454.925c.5 1.016 1.357 1.882 2.44 2.46l.701.374h55.399l.702-.375c1.082-.577 1.94-1.443 2.439-2.459l.454-.925v-7.027c0-6.76-.014-7.081-.37-8.477-1.447-5.68-5.726-9.979-11.444-11.494-1.478-.391-1.901-.425-6.203-.497l-4.616-.077v-5.656l1.266-.888c2.643-1.855 5.054-4.875 6.231-7.806l.49-1.22.838-.123c1.19-.174 2.477-.833 3.343-1.712 2.406-2.44 2.49-6.687.176-8.936-.78-.758-2.168-1.404-3.017-1.404h-.466l-.078-4.534c-.069-3.97-.122-4.698-.43-5.843-1.407-5.233-5.555-9.229-10.675-10.281-1.757-.361-11.09-.352-12.794.012zm12.092 3.406c3.816.798 7.114 4 7.999 7.762.137.584.25 1.78.252 2.656l.002 1.593H32.404l.002-1.593c.005-3.138.896-5.35 3.018-7.494 1.038-1.05 1.6-1.466 2.7-2.006 2.104-1.032 2.837-1.136 8.089-1.147 3.421-.008 4.864.05 5.72.229zM34.038 35.365c0 1.15-.034 1.272-.477 1.716-.263.263-.631.478-.818.478-.322 0-.339-.088-.339-1.716v-1.716h1.634v1.238zm20.955.211c.168 2.941 1.704 4.857 4.35 5.424l.842.181v1.628c0 4.05-1.46 7.374-4.502 10.254-1.113 1.054-1.737 1.49-3.065 2.145-2.361 1.164-3.798 1.506-6.324 1.506-2.548 0-3.987-.346-6.349-1.529-1.333-.667-1.988-1.127-3.092-2.169-2.985-2.819-4.449-6.177-4.449-10.207V41.18l.843-.18c2.645-.568 4.181-2.484 4.35-5.425l.082-1.45H54.91l.083 1.45zm5.192.267c0 1.628-.017 1.716-.34 1.716-.186 0-.554-.215-.816-.478-.444-.444-.478-.565-.478-1.716v-1.238h1.634v1.716zM28.84 41.848c.033 1.371.039 2.524.012 2.563-.095.138-.947-.598-1.31-1.131-.285-.42-.367-.771-.367-1.57 0-1.207.188-1.701.788-2.074.794-.492.812-.449.877 2.212zm35.759-2.22c.623.368.815.86.815 2.081 0 .8-.082 1.152-.367 1.57-.363.534-1.215 1.27-1.31 1.132-.136-.197.092-5.055.237-5.055.09 0 .372.123.625.272zM46.294 60.155c2.166 0 2.946-.064 3.963-.326l1.267-.327v5.548l-.613.561c-2.4 2.2-6.833 2.2-9.233 0l-.613-.56V59.501l1.267.327c1.017.262 1.797.326 3.962.326zm-7.425 7.65c.824.864 2.732 2.031 4.002 2.447 1.047.343 1.526.399 3.423.399s2.377-.056 3.424-.399c1.27-.416 3.178-1.583 4.002-2.447l.48-.504h4.635c5.366 0 6.156.115 8.459 1.23 3.216 1.556 5.412 4.19 6.47 7.758.34 1.147.367 1.614.434 7.348.08 6.795.04 7.165-.826 7.693-.512.312-1.044.319-27.078.319-26.033 0-26.565-.007-27.077-.319-.866-.528-.905-.898-.826-7.693.067-5.734.095-6.2.435-7.348 1.041-3.514 3.206-6.15 6.335-7.71 2.281-1.138 3.05-1.252 8.479-1.266l4.75-.012.48.504zm6.503 8.472c-1.44.878-.767 3.117.937 3.117a1.691 1.691 0 001.559-2.345c-.253-.606-.965-1.088-1.606-1.087-.207 0-.608.142-.89.315zm-.106 7.041c-.624.491-.843 1.301-.545 2.016.248.594.962 1.087 1.574 1.087.611 0 1.325-.493 1.573-1.088a1.69 1.69 0 00-1.574-2.344c-.363 0-.778.133-1.028.33z" fill="#06FF79"/></g><defs><filter id="filter0_d_587_2111" x="0" y="0" width="92.589" height="110" filterUnits="userSpaceOnUse" color-interpolation-filters="sRGB"><feFlood flood-opacity="0" result="BackgroundImageFix"/><feColorMatrix in="SourceAlpha" values="0 0 0 0 0 0 0 0 0 0 0 0 0 0 0 0 0 0 127 0" result="hardAlpha"/><feOffset/><feGaussianBlur stdDeviation="7.5"/><feComposite in2="hardAlpha" operator="out"/><feColorMatrix values="0 0 0 0 0.0463889 0 0 0 0 0.695833 0 0 0 0 0.346333 0 0 0 0.8 0"/><feBlend in2="BackgroundImageFix" result="effect1_dropShadow_587_2111"/><feBlend in="SourceGraphic" in2="effect1_dropShadow_587_2111" result="shape"/></filter></defs></svg>
